X: 52
T: Zong ba nang song]             (tibet. Dialekt)
%%abc-version 2.0
%%abcx-abcm2ps-target-version 5.9.1 (29 Sep 2008)
%%abc-creator hum2abc beta
%%abcx-conversion-date 2013/10/02 07:44:27
%%abc-edited-by Helmut Schaffrath
%%humdrum-veritas 2432234466
%%humdrum-veritas-data 2317192764
%%continueall 1
%%barnumbers 0
L: 1/8
M: 4/4
K: D
A2c2B2A B [I:setbarnb 1]| 
d6B2 | 
d f e/ f/ d/ e/c2B c | 
A B G AB2e e | 
d e B A G B A/ B/ G/ A/ | 
E4z4 | 
B2>d2e3e | 
A2G A B d A F | 
e2d Bd2d A | 
G6E2 | 
G> A B dA2F/ A/ F/ E/ | 
D E C D2<E2E | 
A2G A B d A F | 
e2d Bd2d A | 
G4G E A B | 
G zz6 |]  



